src/images/political-compass-logo.svg

<svg width="216" height="32" viewBox="0 0 216 32" fill="none" xmlns="http://www.w3.org/2000/svg">
<path d="M42.584 28.16V11H45.176V11.744C46.28 11.072 47.312 10.736 48.272 10.736C49.856 10.736 51.016 11.224 51.752 12.2C52.488 13.16 52.856 14.784 52.856 17.072C52.856 19.344 52.432 20.944 51.584 21.872C50.752 22.8 49.384 23.264 47.48 23.264C46.824 23.264 46.064 23.192 45.2 23.048V28.16H42.584ZM47.816 13.064C47.064 13.064 46.312 13.232 45.56 13.568L45.2 13.736V20.816C45.84 20.944 46.544 21.008 47.312 21.008C48.4 21.008 49.152 20.696 49.568 20.072C49.984 19.448 50.192 18.384 50.192 16.88C50.192 14.336 49.4 13.064 47.816 13.064ZM56.1226 12.296C56.9546 11.256 58.3306 10.736 60.2506 10.736C62.1706 10.736 63.5386 11.256 64.3546 12.296C65.1866 13.336 65.6026 14.896 65.6026 16.976C65.6026 19.056 65.2026 20.624 64.4026 21.68C63.6026 22.736 62.2186 23.264 60.2506 23.264C58.2826 23.264 56.8986 22.736 56.0986 21.68C55.2986 20.624 54.8986 19.056 54.8986 16.976C54.8986 14.896 55.3066 13.336 56.1226 12.296ZM58.0906 20.096C58.4586 20.736 59.1786 21.056 60.2506 21.056C61.3226 21.056 62.0426 20.736 62.4106 20.096C62.7786 19.456 62.9626 18.408 62.9626 16.952C62.9626 15.496 62.7626 14.464 62.3626 13.856C61.9786 13.248 61.2746 12.944 60.2506 12.944C59.2266 12.944 58.5146 13.248 58.1146 13.856C57.7306 14.464 57.5386 15.496 57.5386 16.952C57.5386 18.408 57.7226 19.456 58.0906 20.096ZM68.3452 23V6.008H70.9612V23H68.3452ZM74.2715 23V11H76.8875V23H74.2715ZM74.2715 8.96V6.2H76.8875V8.96H74.2715ZM86.5166 13.232H83.2046V18.512C83.2046 19.488 83.2766 20.136 83.4206 20.456C83.5646 20.776 83.9326 20.936 84.5246 20.936L86.4926 20.864L86.6126 22.952C85.5406 23.16 84.7246 23.264 84.1646 23.264C82.8046 23.264 81.8686 22.952 81.3566 22.328C80.8606 21.704 80.6126 20.528 80.6126 18.8V13.232H79.0766V11H80.6126V7.52H83.2046V11H86.5166V13.232ZM88.6621 23V11H91.2781V23H88.6621ZM88.6621 8.96V6.2H91.2781V8.96H88.6621ZM98.9392 10.736C99.7872 10.736 100.787 10.848 101.939 11.072L102.539 11.192L102.443 13.256C101.179 13.128 100.243 13.064 99.6352 13.064C98.4192 13.064 97.6032 13.336 97.1872 13.88C96.7712 14.424 96.5632 15.448 96.5632 16.952C96.5632 18.456 96.7632 19.496 97.1632 20.072C97.5632 20.648 98.3952 20.936 99.6592 20.936L102.467 20.744L102.539 22.832C100.923 23.12 99.7072 23.264 98.8912 23.264C97.0672 23.264 95.7792 22.776 95.0272 21.8C94.2912 20.808 93.9232 19.192 93.9232 16.952C93.9232 14.712 94.3152 13.12 95.0992 12.176C95.8832 11.216 97.1632 10.736 98.9392 10.736ZM113.948 14.696V20.168C113.964 20.52 114.052 20.784 114.212 20.96C114.388 21.12 114.652 21.224 115.004 21.272L114.932 23.264C113.556 23.264 112.492 22.968 111.74 22.376C110.46 22.968 109.172 23.264 107.876 23.264C105.492 23.264 104.3 21.992 104.3 19.448C104.3 18.232 104.62 17.352 105.26 16.808C105.916 16.264 106.916 15.936 108.26 15.824L111.356 15.56V14.696C111.356 14.056 111.212 13.608 110.924 13.352C110.652 13.096 110.244 12.968 109.7 12.968C108.676 12.968 107.396 13.032 105.86 13.16L105.092 13.208L104.996 11.36C106.74 10.944 108.34 10.736 109.796 10.736C111.268 10.736 112.324 11.056 112.964 11.696C113.62 12.32 113.948 13.32 113.948 14.696ZM108.572 17.672C107.468 17.768 106.916 18.368 106.916 19.472C106.916 20.576 107.404 21.128 108.38 21.128C109.18 21.128 110.028 21 110.924 20.744L111.356 20.6V17.408L108.572 17.672ZM117.376 23V6.008H119.992V23H117.376ZM127.695 10.712C128.527 10.712 129.591 10.84 130.887 11.096L131.535 11.24L131.439 13.784C130.175 13.656 129.239 13.592 128.631 13.592C127.527 13.592 126.791 13.832 126.423 14.312C126.071 14.776 125.895 15.664 125.895 16.976C125.895 18.288 126.071 19.192 126.423 19.688C126.791 20.168 127.535 20.408 128.655 20.408L131.439 20.216L131.535 22.784C129.823 23.12 128.519 23.288 127.623 23.288C125.847 23.288 124.567 22.792 123.783 21.8C123.015 20.792 122.631 19.184 122.631 16.976C122.631 14.768 123.031 13.176 123.831 12.2C124.631 11.208 125.919 10.712 127.695 10.712ZM134.472 12.368C135.32 11.264 136.736 10.712 138.72 10.712C140.704 10.712 142.12 11.264 142.968 12.368C143.816 13.456 144.24 14.992 144.24 16.976C144.24 21.184 142.4 23.288 138.72 23.288C135.04 23.288 133.2 21.184 133.2 16.976C133.2 14.992 133.624 13.456 134.472 12.368ZM136.944 19.688C137.28 20.264 137.872 20.552 138.72 20.552C139.568 20.552 140.152 20.264 140.472 19.688C140.808 19.112 140.976 18.208 140.976 16.976C140.976 15.744 140.808 14.848 140.472 14.288C140.152 13.728 139.568 13.448 138.72 13.448C137.872 13.448 137.28 13.728 136.944 14.288C136.624 14.848 136.464 15.744 136.464 16.976C136.464 18.208 136.624 19.112 136.944 19.688ZM149.813 23H146.597V11H149.789V11.672C150.893 11.032 151.837 10.712 152.621 10.712C153.917 10.712 154.917 11.088 155.621 11.84C157.093 11.088 158.437 10.712 159.653 10.712C161.237 10.712 162.333 11.176 162.941 12.104C163.565 13.016 163.877 14.48 163.877 16.496V23H160.661V16.592C160.661 15.568 160.549 14.816 160.325 14.336C160.101 13.84 159.653 13.592 158.981 13.592C158.469 13.592 157.845 13.704 157.109 13.928L156.749 14.048C156.813 15.248 156.845 16.16 156.845 16.784V23H153.629V16.832C153.629 15.648 153.525 14.816 153.317 14.336C153.109 13.84 152.653 13.592 151.949 13.592C151.325 13.592 150.709 13.704 150.101 13.928L149.813 14.024V23ZM166.73 28.04V11H169.922V11.648C170.962 11.024 171.874 10.712 172.658 10.712C174.274 10.712 175.466 11.2 176.234 12.176C177.002 13.136 177.386 14.776 177.386 17.096C177.386 19.416 176.962 21.032 176.114 21.944C175.266 22.84 173.874 23.288 171.938 23.288C171.41 23.288 170.842 23.24 170.234 23.144L169.946 23.096V28.04H166.73ZM172.034 13.592C171.442 13.592 170.842 13.712 170.234 13.952L169.946 14.072V20.36C170.666 20.456 171.25 20.504 171.698 20.504C172.626 20.504 173.258 20.232 173.594 19.688C173.946 19.144 174.122 18.216 174.122 16.904C174.122 14.696 173.426 13.592 172.034 13.592ZM188.977 14.744V19.736C189.009 20.12 189.073 20.392 189.169 20.552C189.265 20.696 189.465 20.8 189.769 20.864L189.673 23.288C188.857 23.288 188.201 23.232 187.705 23.12C187.225 23.008 186.737 22.784 186.241 22.448C185.089 23.008 183.913 23.288 182.713 23.288C180.233 23.288 178.993 21.976 178.993 19.352C178.993 18.072 179.337 17.168 180.025 16.64C180.713 16.096 181.769 15.776 183.193 15.68L185.761 15.488V14.744C185.761 14.248 185.649 13.912 185.425 13.736C185.201 13.544 184.841 13.448 184.345 13.448L179.833 13.64L179.737 11.408C181.449 10.944 183.073 10.712 184.609 10.712C186.161 10.712 187.273 11.032 187.945 11.672C188.633 12.312 188.977 13.336 188.977 14.744ZM183.577 17.912C182.681 17.992 182.233 18.472 182.233 19.352C182.233 20.232 182.625 20.672 183.409 20.672C184.017 20.672 184.681 20.576 185.401 20.384L185.761 20.288V17.72L183.577 17.912ZM200.659 14C198.675 13.744 197.283 13.616 196.483 13.616C195.699 13.616 195.187 13.688 194.947 13.832C194.723 13.976 194.611 14.208 194.611 14.528C194.611 14.832 194.763 15.048 195.067 15.176C195.387 15.288 196.187 15.464 197.467 15.704C198.763 15.928 199.683 16.304 200.227 16.832C200.771 17.36 201.043 18.216 201.043 19.4C201.043 21.992 199.435 23.288 196.219 23.288C195.163 23.288 193.883 23.144 192.379 22.856L191.611 22.712L191.707 20.024C193.691 20.28 195.067 20.408 195.835 20.408C196.619 20.408 197.147 20.336 197.419 20.192C197.707 20.032 197.851 19.8 197.851 19.496C197.851 19.192 197.699 18.968 197.395 18.824C197.107 18.68 196.339 18.504 195.091 18.296C193.859 18.088 192.939 17.736 192.331 17.24C191.723 16.744 191.419 15.864 191.419 14.6C191.419 13.32 191.851 12.36 192.715 11.72C193.579 11.064 194.691 10.736 196.051 10.736C196.995 10.736 198.283 10.888 199.915 11.192L200.707 11.336L200.659 14ZM211.979 14C209.995 13.744 208.603 13.616 207.803 13.616C207.019 13.616 206.507 13.688 206.267 13.832C206.043 13.976 205.931 14.208 205.931 14.528C205.931 14.832 206.083 15.048 206.387 15.176C206.707 15.288 207.507 15.464 208.787 15.704C210.083 15.928 211.003 16.304 211.547 16.832C212.091 17.36 212.363 18.216 212.363 19.4C212.363 21.992 210.755 23.288 207.539 23.288C206.483 23.288 205.203 23.144 203.699 22.856L202.931 22.712L203.027 20.024C205.011 20.28 206.387 20.408 207.155 20.408C207.939 20.408 208.467 20.336 208.739 20.192C209.027 20.032 209.171 19.8 209.171 19.496C209.171 19.192 209.019 18.968 208.715 18.824C208.427 18.68 207.659 18.504 206.411 18.296C205.179 18.088 204.259 17.736 203.651 17.24C203.043 16.744 202.739 15.864 202.739 14.6C202.739 13.32 203.171 12.36 204.035 11.72C204.899 11.064 206.011 10.736 207.371 10.736C208.315 10.736 209.603 10.888 211.235 11.192L212.027 11.336L211.979 14Z" fill="#132A59"/>
<path d="M16 0.75C7.57443 0.75 0.75 7.57443 0.75 16C0.75 24.4256 7.57443 31.25 16 31.25C24.4256 31.25 31.25 24.4256 31.25 16C31.25 7.57443 24.4256 0.75 16 0.75ZM16 29.25C8.67557 29.25 2.75 23.3244 2.75 16C2.75 8.67557 8.67557 2.75 16 2.75C23.3244 2.75 29.25 8.67557 29.25 16C29.25 23.3244 23.3244 29.25 16 29.25Z" fill="#132A59" stroke="#132A59" stroke-width="0.5"/>
<path d="M22.675 8.83751L13.1875 12.2875C12.775 12.4375 12.4375 12.775 12.2875 13.1875L8.83748 22.675C8.72498 22.975 9.02498 23.275 9.32498 23.1625L18.8125 19.7125C19.225 19.5625 19.5625 19.225 19.7125 18.8125L23.1625 9.32501C23.275 9.02501 22.975 8.72501 22.675 8.83751ZM11.0875 20.9125L13.4125 14.5L17.5 18.5875L11.0875 20.9125ZM18.5875 17.5L14.5 13.4125L20.95 11.0875L18.5875 17.5Z" fill="#132A59"/>
</svg>

<?xml version="1.0" encoding="utf-8"?>
<!-- Generator: Adobe Illustrator 27.0.0, SVG Export Plug-In . SVG Version: 6.00 Build 0)  -->
<svg version="1.1" id="Layer_1" xmlns="http://www.w3.org/2000/svg" xmlns:xlink="http://www.w3.org/1999/xlink" x="0px" y="0px"
	 viewBox="0 0 216 32" style="enable-background:new 0 0 216 32;" xml:space="preserve">
<style type="text/css">
	.st0{fill:#132A59;}
	.st1{fill:#132A59;stroke:#132A59;stroke-width:0.5;}
	.st2{font-family:'LeagueSpartan-Bold';}
	.st3{font-size:24px;}
</style>
<path class="st0" d="M127.7,10.7c0.8,0,1.9,0.1,3.2,0.4l0.6,0.1l-0.1,2.5c-1.3-0.1-2.2-0.2-2.8-0.2c-1.1,0-1.8,0.2-2.2,0.7
	c-0.4,0.5-0.5,1.4-0.5,2.7s0.2,2.2,0.5,2.7c0.4,0.5,1.1,0.7,2.2,0.7l2.8-0.2l0.1,2.6c-1.7,0.3-3,0.5-3.9,0.5c-1.8,0-3.1-0.5-3.8-1.5
	c-0.8-1-1.2-2.6-1.2-4.8s0.4-3.8,1.2-4.8C124.6,11.2,125.9,10.7,127.7,10.7z M134.5,12.4c0.8-1.1,2.3-1.7,4.2-1.7
	c2,0,3.4,0.6,4.2,1.7c0.8,1.1,1.3,2.6,1.3,4.6c0,4.2-1.8,6.3-5.5,6.3c-3.7,0-5.5-2.1-5.5-6.3C133.2,15,133.6,13.5,134.5,12.4z
	 M136.9,19.7c0.3,0.6,0.9,0.9,1.8,0.9c0.8,0,1.4-0.3,1.8-0.9c0.3-0.6,0.5-1.5,0.5-2.7s-0.2-2.1-0.5-2.7c-0.3-0.6-0.9-0.8-1.8-0.8
	c-0.8,0-1.4,0.3-1.8,0.8c-0.3,0.6-0.5,1.5-0.5,2.7S136.6,19.1,136.9,19.7z M149.8,23h-3.2V11h3.2v0.7c1.1-0.6,2-1,2.8-1
	c1.3,0,2.3,0.4,3,1.1c1.5-0.8,2.8-1.1,4-1.1c1.6,0,2.7,0.5,3.3,1.4c0.6,0.9,0.9,2.4,0.9,4.4V23h-3.2v-6.4c0-1-0.1-1.8-0.3-2.3
	c-0.2-0.5-0.7-0.7-1.3-0.7c-0.5,0-1.1,0.1-1.9,0.3l-0.4,0.1c0.1,1.2,0.1,2.1,0.1,2.7V23h-3.2v-6.2c0-1.2-0.1-2-0.3-2.5
	c-0.2-0.5-0.7-0.7-1.4-0.7c-0.6,0-1.2,0.1-1.8,0.3l-0.3,0.1V23z M166.7,28V11h3.2v0.6c1-0.6,2-0.9,2.7-0.9c1.6,0,2.8,0.5,3.6,1.5
	c0.8,1,1.2,2.6,1.2,4.9s-0.4,3.9-1.3,4.8c-0.8,0.9-2.2,1.3-4.2,1.3c-0.5,0-1.1,0-1.7-0.1l-0.3,0V28H166.7z M172,13.6
	c-0.6,0-1.2,0.1-1.8,0.4l-0.3,0.1v6.3c0.7,0.1,1.3,0.1,1.8,0.1c0.9,0,1.6-0.3,1.9-0.8c0.4-0.5,0.5-1.5,0.5-2.8
	C174.1,14.7,173.4,13.6,172,13.6z M189,14.7v5c0,0.4,0.1,0.7,0.2,0.8c0.1,0.1,0.3,0.2,0.6,0.3l-0.1,2.4c-0.8,0-1.5-0.1-2-0.2
	c-0.5-0.1-1-0.3-1.5-0.7c-1.2,0.6-2.3,0.8-3.5,0.8c-2.5,0-3.7-1.3-3.7-3.9c0-1.3,0.3-2.2,1-2.7c0.7-0.5,1.7-0.9,3.2-1l2.6-0.2v-0.7
	c0-0.5-0.1-0.8-0.3-1c-0.2-0.2-0.6-0.3-1.1-0.3l-4.5,0.2l-0.1-2.2c1.7-0.5,3.3-0.7,4.9-0.7c1.6,0,2.7,0.3,3.3,1
	C188.6,12.3,189,13.3,189,14.7z M183.6,17.9c-0.9,0.1-1.3,0.6-1.3,1.4c0,0.9,0.4,1.3,1.2,1.3c0.6,0,1.3-0.1,2-0.3l0.4-0.1v-2.6
	L183.6,17.9z M200.7,14c-2-0.3-3.4-0.4-4.2-0.4c-0.8,0-1.3,0.1-1.5,0.2c-0.2,0.1-0.3,0.4-0.3,0.7c0,0.3,0.2,0.5,0.5,0.6
	c0.3,0.1,1.1,0.3,2.4,0.5c1.3,0.2,2.2,0.6,2.8,1.1c0.5,0.5,0.8,1.4,0.8,2.6c0,2.6-1.6,3.9-4.8,3.9c-1.1,0-2.3-0.1-3.8-0.4l-0.8-0.1
	l0.1-2.7c2,0.3,3.4,0.4,4.1,0.4c0.8,0,1.3-0.1,1.6-0.2c0.3-0.2,0.4-0.4,0.4-0.7c0-0.3-0.2-0.5-0.5-0.7c-0.3-0.1-1.1-0.3-2.3-0.5
	c-1.2-0.2-2.2-0.6-2.8-1.1c-0.6-0.5-0.9-1.4-0.9-2.6c0-1.3,0.4-2.2,1.3-2.9c0.9-0.7,2-1,3.3-1c0.9,0,2.2,0.2,3.9,0.5l0.8,0.1
	L200.7,14z M212,14c-2-0.3-3.4-0.4-4.2-0.4c-0.8,0-1.3,0.1-1.5,0.2c-0.2,0.1-0.3,0.4-0.3,0.7c0,0.3,0.2,0.5,0.5,0.6
	c0.3,0.1,1.1,0.3,2.4,0.5c1.3,0.2,2.2,0.6,2.8,1.1c0.5,0.5,0.8,1.4,0.8,2.6c0,2.6-1.6,3.9-4.8,3.9c-1.1,0-2.3-0.1-3.8-0.4l-0.8-0.1
	L203,20c2,0.3,3.4,0.4,4.1,0.4c0.8,0,1.3-0.1,1.6-0.2c0.3-0.2,0.4-0.4,0.4-0.7c0-0.3-0.2-0.5-0.5-0.7c-0.3-0.1-1.1-0.3-2.3-0.5
	c-1.2-0.2-2.2-0.6-2.8-1.1s-0.9-1.4-0.9-2.6c0-1.3,0.4-2.2,1.3-2.9c0.9-0.7,2-1,3.3-1c0.9,0,2.2,0.2,3.9,0.5l0.8,0.1L212,14z"/>
<path class="st1" d="M16,0.8C7.6,0.8,0.8,7.6,0.8,16c0,8.4,6.8,15.2,15.2,15.2c8.4,0,15.2-6.8,15.2-15.2C31.2,7.6,24.4,0.8,16,0.8z
	 M16,29.2C8.7,29.2,2.8,23.3,2.8,16C2.8,8.7,8.7,2.8,16,2.8c7.3,0,13.2,5.9,13.2,13.2C29.2,23.3,23.3,29.2,16,29.2z"/>
<path class="st0" d="M22.7,8.8l-9.5,3.4c-0.4,0.1-0.8,0.5-0.9,0.9l-3.5,9.5C8.7,23,9,23.3,9.3,23.2l9.5-3.5c0.4-0.1,0.8-0.5,0.9-0.9
	l3.5-9.5C23.3,9,23,8.7,22.7,8.8z M11.1,20.9l2.3-6.4l4.1,4.1L11.1,20.9z M18.6,17.5l-4.1-4.1l6.5-2.3L18.6,17.5z"/>
<text transform="matrix(1 0 0 1 36.1987 23.5236)" class="st0 st2 st3">crypto</text>
</svg>
